X: 15305
T: Girls Of Farranfore, The
R: reel
M: 4/4
K: Edorian
BE ~E2 GBdB|AD (F/E/D) FGA_c|BE ~E2 GABd|dBA_c BE~E2:|
e3f gf (3gfe|defg afdf|e^def gf (3gfe|dBA_c BE EB|
eeef gf (3gfe|defg afdf|g2 ba gfed|(3Bcd A_c BEE2|

